public/assets/icons/download.svg

<svg width="30" height="30" viewBox="0 0 30 30" fill="none" xmlns="http://www.w3.org/2000/svg">
<circle opacity="0.1" cx="15" cy="15" r="15" fill="#56B8FF"/>
<path d="M15 8.33398V13.0007L16.3333 11.6673" stroke="#56B8FF" stroke-linecap="round" stroke-linejoin="round"/>
<path d="M14.9993 13.0013L13.666 11.668" stroke="#56B8FF" stroke-width="1.5" stroke-linecap="round" stroke-linejoin="round"/>
<path d="M8.32031 15.668H11.2603C11.5136 15.668 11.7403 15.808 11.8536 16.0346L12.6336 17.5946C12.8603 18.048 13.3203 18.3346 13.827 18.3346H16.1803C16.687 18.3346 17.147 18.048 17.3736 17.5946L18.1536 16.0346C18.267 15.808 18.5003 15.668 18.747 15.668H21.6536" stroke="#56B8FF" stroke-linecap="round" stroke-linejoin="round"/>
<path d="M11.6673 9.75391C9.30732 10.1006 8.33398 11.4872 8.33398 14.3339V17.0006C8.33398 20.3339 9.66732 21.6672 13.0007 21.6672H17.0007C20.334 21.6672 21.6673 20.3339 21.6673 17.0006V14.3339C21.6673 11.4872 20.694 10.1006 18.334 9.75391" stroke="#56B8FF" stroke-linecap="round" stroke-linejoin="round"/>
</svg>

<svg xmlns="http://www.w3.org/2000/svg" width="30" height="30" fill="none"><circle cx="15" cy="15" r="15" fill="#56B8FF" opacity=".1"/><path stroke="#56B8FF" stroke-linecap="round" stroke-linejoin="round" d="M15 8.334v4.667l1.333-1.334"/><path stroke="#56B8FF" stroke-linecap="round" stroke-linejoin="round" stroke-width="1.5" d="m15 13.001-1.334-1.333"/><path stroke="#56B8FF" stroke-linecap="round" stroke-linejoin="round" d="M8.32 15.668h2.94c.254 0 .48.14.594.367l.78 1.56c.226.453.686.74 1.193.74h2.353c.507 0 .967-.287 1.194-.74l.78-1.56a.67.67 0 0 1 .593-.367h2.907"/><path stroke="#56B8FF" stroke-linecap="round" stroke-linejoin="round" d="M11.667 9.754c-2.36.347-3.333 1.733-3.333 4.58V17c0 3.333 1.333 4.666 4.667 4.666h4c3.333 0 4.666-1.333 4.666-4.666v-2.667c0-2.847-.973-4.233-3.333-4.58"/></svg>
